X: 10
T: Missa Ave regina celorum / Agnus Dei
N: Derived from Obr1002e-Missa_Ave_regina_celorum-Agnus.krn
C: Jacob Obrecht
%%abc-version 2.0
%%abcx-abcm2ps-target-version 5.9.1 (29 Sep 2008)
%%abc-creator hum2abc beta
%%abcx-conversion-date 2019/02/17 07:23:44
%%abc-edited-by Jesse Rodin
%%abc-edited-by Jesse Rodin 8/27/2013
%%abcx-initial-encoding-date 2013/08/27/
%%humdrum-veritas 380716431
%%humdrum-veritas-data 61022494
%%linebreak <none>
%%barnumbers 0
L: 1/4
M: 3/1
Q: 1/2=120
%%staves [1 2 3 4]
V: 1 clef=treble
V: 2 clef=treble-8
V: 3 clef=treble-8
V: 4 clef=bass
K: F
[V:1] G8A4 | 
[V:2] c12 | 
[V:3] G6E4C2 | 
[V:4] C,8A,,4 | 
[V:1] A4B3AGFA2- | 
[V:2] c4B2d4c2 | 
[V:3] C4z2G2D2E2 | 
[V:4] F,,4G,,4B,,2A,,2 | 
[V:1] ABc2F2B2A2GF | 
[V:2] A4B4c2d2 | 
[V:3] F4D4z4 | 
[V:4] F,,4z2G,,2A,,2B,,2 | 
[V:1] !fermata!E12 | 
[V:2] !fermata!c12 | 
[V:3] !fermata!G12 | 
[V:4] !fermata!C,12 | 
[V:1] z12 | 
[V:2] A2B2A2d3cc2- | 
[V:3] D3EFGA3GG2- | 
[V:4] F,4F,4E,4 | 
[V:1] z4E4E4 | 
[V:2] c2=B2c6B2 | 
[V:3] G2F2G2E3FG2 | 
[V:4] D,4C,3B,,A,,2G,,2 | 
[V:1] F2E4C2G4 | 
[V:2] A2GFE2F4E2 | 
[V:3] C4z2C4B,2 | 
[V:4] F,,2C,4A,,2G,,4 | 
[V:1] A2c3BA3BA2 | 
[V:2] F2A3Bc2d2c2- | 
[V:3] C4F8 | 
[V:4] F,,12 | 
[V:1] E3FG2D4E2 | 
[V:2] cBG3AB3A/G/B2 | 
[V:3] C3DE2F2G4 | 
[V:4] z2C,4B,,2G,,4 | 
[V:1] F2A3GG4F2 | 
[V:2] A4F2G2A2c2 | 
[V:3] C2F3ED4C2 | 
[V:4] F,,4B,,4A,,4 | 
[V:1] G3FE2D2C4 | 
[V:2] B2G2z2B2A2G2- | 
[V:3] D2E3FG2E2DC | 
[V:4] G,,2C,4B,,2C,4 | 
[V:1] z2c2BAGFECF2- | 
[V:2] G2F2G4z4 | 
[V:3] D2C2D2EFGAB2 | 
[V:4] G,,2A,,2G,,2C,4B,,2 | 
[V:1] F2E2F8- | 
[V:2] c6C2D2C2 | 
[V:3] G4F4z2c2 | 
[V:4] C,4F,,4B,,2A,,2 | 
[V:1] F4z4z4 | 
[V:2] c4A4F2G2 | 
[V:3] A3Bc3CC2D2 | 
[V:4] F,,4z2C,2A,,2B,,2 | 
[V:1] z2G2E3FG4 | 
[V:2] A2c6d4 | 
[V:3] E3FG2A2B4 | 
[V:4] C,8z2G,,2 | 
[V:1] z2D2E3FG4 | 
[V:2] c2B2G2_e4d2 | 
[V:3] A2F2c6B2 | 
[V:4] A,,2B,,2C,4z2G,,2 | 
[V:1] z4z2G4A2- | 
[V:2] c2d2G3AB2A2 | 
[V:3] A2D2E3FG2C2 | 
[V:4] A,,2B,,2C,3B,,G,,2F,,2 | 
[V:1] ABc2B3A/G/F4 | 
[V:2] F4G4A2B2 | 
[V:3] z2C2D4D4 | 
[V:4] A,,4G,,4z2B,,2 | 
[V:1] z2G4A2(3B2G2B2 | 
[V:2] c3B/A/G2F4E2 | 
[V:3] C2E3DC2B,3C | 
[V:4] A,,2C,4A,,2G,,4 | 
[V:1] (3A2F2A2G2F4E2 | 
[V:2] F4B2A2G4 | 
[V:3] D2C2z2c3Bc2 | 
[V:4] z2F,,2E,,2F,,2C,4 | 
[V:1] F12- | 
[V:2] F12- | 
[V:3] A12 | 
[V:4] F,,12- | 
[V:1] F12 ||  
[V:2] F12 ||  
[V:3] c12 ||  
[V:4] F,,12 ||  
[V:1]  [K:F] [K:clef=treble][M:2/1]G6A2 | 
[V:2]  [K:F] [K:clef=treble-8][M:2/1]c3de2f2- | 
[V:3]  [K:F] [K:clef=treble-8][M:2/1]z8 | 
[V:4]  [K:F] [K:clef=bass][M:2/1]C,6A,,2 | 
[V:1] B4A4- | 
[V:2] f2e2f4 | 
[V:3] z4c4- | 
[V:4] G,,4F,,4 | 
[V:1] A2c2B4 | 
[V:2] e2dcd4- | 
[V:3] c2A2G4 | 
[V:4] z4G,,4 | 
[V:1] z2A3Bc2 | 
[V:2] d2c3BA2 | 
[V:3] F4z4 | 
[V:4] B,,2A,,2F,,4 | 
[V:1] B3AGFA2- | 
[V:2] G2d4c2 | 
[V:3] G4B2A2 | 
[V:4] z8 | 
[V:1] A2GFE2D2 | 
[V:2] A3Bc2B2 | 
[V:3] F4z4 | 
[V:4] z2F,,2A,,2B,,2 | 
[V:1] E2G2F4 | 
[V:2] G2c4d2 | 
[V:3] z2G2A2B2 | 
[V:4] C,4z4 | 
[V:1] !fermata!E8 | 
[V:2] !fermata!G8 | 
[V:3] !fermata!c8 | 
[V:4] !fermata!C,8 | 
[V:1] z8 | 
[V:2] A3BcAd2- | 
[V:3] z8 | 
[V:4] F,8 | 
[V:1] z4A3B | 
[V:2] d2^c2d4 | 
[V:3] z4f4- | 
[V:4] E,4D,4 | 
[V:1] cAd4c2 | 
[V:2] z2d2e2g2 | 
[V:3] f4e4 | 
[V:4] z8 | 
[V:1] d2cBA4 | 
[V:2] f6ed | 
[V:3] d8 | 
[V:4] z8 | 
[V:1] G4z4 | 
[V:2] e4z2c2- | 
[V:3] z8 | 
[V:4] C,4C,B,,A,,G,, | 
[V:1] z8 | 
[V:2] cBA4G2- | 
[V:3] z8 | 
[V:4] F,,2C,4B,,2 | 
[V:1] z4z2G2 | 
[V:2] GFF4E2 | 
[V:3] z8 | 
[V:4] C,2A,,2G,,4 | 
[V:1] A6c2- | 
[V:2] F4z4 | 
[V:3] c4cBAG | 
[V:4] F,,4z4 | 
[V:1] cBA2G3F | 
[V:2] z8 | 
[V:3] F2c4B2 | 
[V:4] z8 | 
[V:1] EDF4E2 | 
[V:2] z8 | 
[V:3] c2A2G4 | 
[V:4] z4z2C,2 | 
[V:1] F4G4 | 
[V:2] z2F4E2 | 
[V:3] F4z4 | 
[V:4] A,,2B,,2G,,4 | 
[V:1] A6F2 | 
[V:2] FGABc2d2- | 
[V:3] z2c2A2B2 | 
[V:4] F,,4z2B,,2- | 
[V:1] G2B2A4 | 
[V:2] d2B2c4 | 
[V:3] G4F4 | 
[V:4] B,,2G,,2A,,4 | 
[V:1] D3EF2G2 | 
[V:2] B2d4cB | 
[V:3] z2B4G2 | 
[V:4] G,,4z4 | 
[V:1] E4z2G2- | 
[V:2] c3de2d2 | 
[V:3] A4G4 | 
[V:4] z2C,4B,,2 | 
[V:1] G2E2D4 | 
[V:2] z2G4G2- | 
[V:3] z2c4=B2 | 
[V:4] C,4z2G,,2 | 
[V:1] C3DE4 | 
[V:2] G2F2G4 | 
[V:3] c4z4 | 
[V:4] A,,4G,,2C,2- | 
[V:1] C2F4E2 | 
[V:2] A2B2G2c2- | 
[V:3] z4z2G2 | 
[V:4] C,2B,,2C,4 | 
[V:1] F4E2DC | 
[V:2] c2BAB2A2 | 
[V:3] A4G2c2- | 
[V:4] F,,4z4 | 
[V:1] D4C4 | 
[V:2] G4A2G2- | 
[V:3] c2=B2c4 | 
[V:4] z4z2C,2- | 
[V:1] z4z2G2 | 
[V:2] G2F4E2 | 
[V:3] z8 | 
[V:4] C,2A,,2G,,4 | 
[V:1] A3G/F/ECF2- | 
[V:2] F3GABc2 | 
[V:3] z2c4A2 | 
[V:4] F,,4z4 | 
[V:1] F2E2F2D2 | 
[V:2] B2c4BA | 
[V:3] G4F4 | 
[V:4] z2C,2A,,2B,,2 | 
[V:1] E4z4 | 
[V:2] G2FEF2D2 | 
[V:3] z2c2A2B2 | 
[V:4] C,4z2G,,2 | 
[V:1] E4E4 | 
[V:2] C4E4 | 
[V:3] c4z2G2 | 
[V:4] A,,3B,,C,4 | 
[V:1] F2G2E4 | 
[V:2] D4C2c2- | 
[V:3] A2B2c4 | 
[V:4] z2G,,2A,,3B,, | 
[V:1] E3FG2A2- | 
[V:2] cBGAB2cB | 
[V:3] z8 | 
[V:4] C,3B,,G,,2F,,2 | 
[V:1] ABcAB4 | 
[V:2] AGF4E2 | 
[V:3] z4z2G2 | 
[V:4] A,,4G,,4 | 
[V:1] z2A4G2- | 
[V:2] F3GABc2 | 
[V:3] A2B2c3B | 
[V:4] z8 | 
[V:1] GFD2C2E2- | 
[V:2] B4c4 | 
[V:3] G2F2A4 | 
[V:4] z2B,,2A,,2C,2- | 
[V:1] EDEFG4 | 
[V:2] z2C2D2E2 | 
[V:3] G4z2B2 | 
[V:4] C,2B,,A,,G,,4 | 
[V:1] C3DE2F2- | 
[V:2] F2A3Bc2 | 
[V:3] A2c4BA | 
[V:4] F,,4z4 | 
[V:1] F2E2F4 | 
[V:2] B2c2A2d2- | 
[V:3] G4F4 | 
[V:4] z2C,2D,2F,2- | 
[V:1] z8 | 
[V:2] dcBAB2A2 | 
[V:3] z8 | 
[V:4] F,E,D,C,D,2C,2- | 
[V:1] z4z2G2 | 
[V:2] G2F4E2 | 
[V:3] z8 | 
[V:4] C,B,,A,,2G,,4 | 
[V:1] A2c2B2A2- | 
[V:2] F4z2F2- | 
[V:3] z2c2d2f2- | 
[V:4] F,,4z4 | 
[V:1] AGB4A2- | 
[V:2] F2G4A2 | 
[V:3] fedcd2c2- | 
[V:4] z4z2F,,2- | 
[V:1] AGF4E2 | 
[V:2] F2c3Bc2 | 
[V:3] cBA2G4 | 
[V:4] F,,G,,A,,B,,C,4 | 
[V:1] F8- | 
[V:2] d2c2A3B | 
[V:3] F8- | 
[V:4] F,,8- | 
[V:1] F8 ||  
[V:2] c8 ||  
[V:3] F8 ||  
[V:4] F,,8 ||  
[V:1]  [K:F] [K:clef=treble][M:4/2]z4G4 | 
[V:2]  [K:F] [K:clef=treble-8][M:4/2]z8 | 
[V:3]  [K:F] [K:clef=treble-8][M:4/2]G4E2G2- | 
[V:4]  [K:F] [K:clef=bass][M:4/2]C,8- :
[V:1] E2G3FED | 
[V:2] c4G2c2- | 
[V:3] GFEDC4 | 
[V:4] C,8 | 
[V:1] C2F3ECD | 
[V:2] cBAGF4 | 
[V:3] z2c3BA2 | 
[V:4] F,8 :
[V:1] E3FGAG2- | 
[V:2] z2G3FGA | 
[V:3] G4E4 | 
[V:4] E,4C,4 | 
[V:1] G2FED4 | 
[V:2] B4B4 | 
[V:3] D3EF2G2 | 
[V:4] B,,8 :
[V:1] C2E3DC2 | 
[V:2] G2c3BAG | 
[V:3] E2G3FE2 | 
[V:4] C,8 | 
[V:1] =B,2C4=B,2 | 
[V:2] F2E2G4 | 
[V:3] D2C2D4 | 
[V:4] z4G,,4 :
[V:1] C4z2E2- | 
[V:2] E2F2E2c2- | 
[V:3] C3DEFG2- | 
[V:4] A,,4C,4- | 
[V:1] E2F2G4 | 
[V:2] cBA4G2 | 
[V:3] G2F2D4 | 
[V:4] C,4B,,4 :
[V:1] C4F4 | 
[V:2] A2c3BA2 | 
[V:3] z2A3Bc2 | 
[V:4] A,,4F,,4 | 
[V:1] E2D2C4 | 
[V:2] G4E3F | 
[V:3] B4A4 | 
[V:4] G,,4A,,4 :
[V:1] B,2D4CB, | 
[V:2] G2F2G4 | 
[V:3] D8 | 
[V:4] B,,8 | 
[V:1] C2D4^C2 | 
[V:2] A8 | 
[V:3] E8 | 
[V:4] A,,8 :
[V:1] DEFGA2B2 | 
[V:2] F4z2D2 | 
[V:3] D4DEFG | 
[V:4] z8 | 
[V:1] A2F2z2F2 | 
[V:2] F3GA2B2 | 
[V:3] A2B2A2d2- | 
[V:4] D,8- :
[V:1] D2F4ED | 
[V:2] A2d3cAB | 
[V:3] d2cBA2F2 | 
[V:4] D,8 | 
[V:1] E4C4 | 
[V:2] c6BA | 
[V:3] G2A3GFE | 
[V:4] C,4A,,4 :
[V:1] D2F4ED | 
[V:2] G2F2G4 | 
[V:3] D4z2D2 | 
[V:4] B,,8 | 
[V:1] C2c3BA2- | 
[V:2] A8 | 
[V:3] E2F2C2F2- | 
[V:4] A,,8 :
[V:1] A2GFG4 | 
[V:2] z8 | 
[V:3] F2EDE4 | 
[V:4] z4G,,4 | 
[V:1] A6F2- | 
[V:2] c4cBAG | 
[V:3] F6C2 | 
[V:4] F,,8 :
[V:1] F2EDC4 | 
[V:2] F2G2A2c2- | 
[V:3] D4E4 | 
[V:4] B,,4A,,4 | 
[V:1] z2c3BA2- | 
[V:2] cBA4GF | 
[V:3] F6ED | 
[V:4] F,,8 :
[V:1] AGE4E2 | 
[V:2] E2c3BA2- | 
[V:3] C4z4 | 
[V:4] A,,4C,4- | 
[V:1] C2E2D4 | 
[V:2] AGE2F2G2 | 
[V:3] z4D3E | 
[V:4] C,4B,,4 :
[V:1] C2A,3B,C2 | 
[V:2] A2c4BA | 
[V:3] F2E4DC | 
[V:4] A,,8 | 
[V:1] D2CDEDCB, | 
[V:2] BAGFE2D2 | 
[V:3] B,2C4B,2 | 
[V:4] G,,8 :
[V:1] A,2A3Bc2- | 
[V:2] F8 | 
[V:3] C2c3BAG | 
[V:4] F,,8- | 
[V:1] cBB4A2 | 
[V:2] z4f4- | 
[V:3] A2B2c4 | 
[V:4] F,,8 :
[V:1] B4A2G2- | 
[V:2] f4e4- | 
[V:3] B4z4 | 
[V:4] z4C,4- | 
[V:1] G2FED4 | 
[V:2] e2dcf4 | 
[V:3] z4B4 | 
[V:4] C,4B,,4 :
[V:1] CDEFG2A2- | 
[V:2] (3e4c4e4 | 
[V:3] A2G4FE | 
[V:4] C,8 | 
[V:1] AGFEF4 | 
[V:2] (3d4A4B4 | 
[V:3] F4z2F2 | 
[V:4] D,8 :
[V:1] E2c3BA2 | 
[V:2] c4z2_e2- | 
[V:3] A2G2c3B | 
[V:4] C,8- | 
[V:1] G2F4E2 | 
[V:2] edcBc4 | 
[V:3] c2A2G4 | 
[V:4] C,8 :
[V:1] F8 | 
[V:2] A4B4 | 
[V:3] F4D4 | 
[V:4] F,8 | 
[V:1] z4G4- | 
[V:2] c2C3DEF | 
[V:3] C3DEFG2 | 
[V:4] E,8- :
[V:1] G8 | 
[V:2] G2C4e2- | 
[V:3] C2G2E2G2- | 
[V:4] E,4C,4- | 
[V:1] E4F3G | 
[V:2] edc4=B2 | 
[V:3] GFE2D4 | 
[V:4] C,4F,4 :
[V:1] A2G2F2A2- | 
[V:2] c4d3c | 
[V:3] C4z2F2- | 
[V:4] E,4D,4- | 
[V:1] AGE4G2- | 
[V:2] A2c3BG2 | 
[V:3] FGAFG2E2 | 
[V:4] D,2C,2C,4- :
[V:1] GFE2D2F2- | 
[V:2] c4d4 | 
[V:3] G2A2B4 | 
[V:4] C,4B,,4 | 
[V:1] F2EDE4 | 
[V:2] c4z2c2 | 
[V:3] G4G4 | 
[V:4] C,8 :
[V:1] F8 | 
[V:2] c3BA2F2 | 
[V:3] F2c3BA2- | 
[V:4] F,,8 | 
[V:1] z4G4 | 
[V:2] c4z4 | 
[V:3] AGF4E2 | 
[V:4] A,,4G,,4 :
[V:1] A2c3BA2- | 
[V:2] c3BA3G | 
[V:3] F3GABc2- | 
[V:4] F,,8 | 
[V:1] AGF4E2 | 
[V:2] F4z2c2 | 
[V:3] c2A2G4 | 
[V:4] z4C,4 :
[V:1] F4D4 | 
[V:2] c4B4 | 
[V:3] F4F4 | 
[V:4] A,,4B,,4 | 
[V:1] E2G3FED | 
[V:2] G3FE2C2 | 
[V:3] E2C2G3F | 
[V:4] C,8- :
[V:1] C2G3FE2 | 
[V:2] G3FE2C2 | 
[V:3] EDC2G4 | 
[V:4] C,8 | 
[V:1] D2C4=B,2 | 
[V:2] D2E2G4 | 
[V:3] F2E2D4 | 
[V:4] z4G,,4 :
[V:1] C4D4 | 
[V:2] E2A2F2B2 | 
[V:3] C2E2D2F2 | 
[V:4] A,,4B,,4 | 
[V:1] E3FG2A2 | 
[V:2] G2c3BA2 | 
[V:3] E2C2z2c2 | 
[V:4] C,8 :
[V:1] B2c4=B2 | 
[V:2] G2A2G4 | 
[V:3] d2c2d3c | 
[V:4] z4G,,4 | 
[V:1] c2C2D4 | 
[V:2] E4z4 | 
[V:3] c4z4 | 
[V:4] A,,4B,,4 :
[V:1] C3DEFG2- | 
[V:2] E3FGAB2- | 
[V:3] G3FE2D2 | 
[V:4] C,6B,,2 | 
[V:1] GABcA4 | 
[V:2] B2AGc2c2- | 
[V:3] E4F4- | 
[V:4] G,,4F,,4 :
[V:1] z2c3BAG | 
[V:2] cBAGF4 | 
[V:3] F2EDC4 | 
[V:4] A,,8 | 
[V:1] B3AGFG2- | 
[V:2] G3ABcd2 | 
[V:3] D8 | 
[V:4] G,,8 :
[V:1] G2C2D4 | 
[V:2] B2A4G2 | 
[V:3] z4D4 | 
[V:4] z4B,,4 | 
[V:1] C3DEFG2- | 
[V:2] A4G2c2- | 
[V:3] E6DC | 
[V:4] A,,4C,4- :
[V:1] G2C4c2- | 
[V:2] cBG2c4 | 
[V:3] E6DC | 
[V:4] C,2B,,2A,,4 | 
[V:1] c2=BA=B4 | 
[V:2] d8 | 
[V:3] G8 | 
[V:4] G,,8 :
[V:1] c3BAGA2 | 
[V:2] c8 | 
[V:3] A4F4 | 
[V:4] z4F,,4 | 
[V:1] G2B4A2- | 
[V:2] z8 | 
[V:3] G4A4 | 
[V:4] E,,4F,,4 :
[V:1] AGF4E2 | 
[V:2] c8 | 
[V:3] G8 | 
[V:4] C,8 | 
[V:1] F8 |]  
[V:2] c8 |]  
[V:3] F8 |]  
[V:4] F,,8 |]  



